assets/cloud-drizzle-fill.svg

<svg xmlns="http://www.w3.org/2000/svg" fill="none" viewBox="0 0 28 28">
  <path fill="#2A2238" d="M7.26788 20.5558c.1091.0387.20995.1.29681.1803.08685.0803.15799.178.20935.2876.05137.1096.08195.2289.09.3511.00805.1222-.0066.2449-.04309.3611l-.87511 2.7965c-.07967.2256-.23833.4096-.44267.5134-.20433.1037-.43844.119-.65317.0428-.21473-.0763-.39337-.2382-.49842-.4517-.10505-.2136-.12833-.4622-.06495-.6937l.87511-2.7964c.07313-.2346.23074-.4287.43818-.5395.20743-.1108.4477-.1294.66796-.0515Zm10.50132 0c.1091.0387.21.1.2968.1803.0869.0803.158.178.2094.2876.0513.1096.0819.2289.09.3511.008.1222-.0066.2449-.0431.3611l-.8751 2.7965c-.0797.2256-.2384.4096-.4427.5134-.2043.1037-.4384.119-.6532.0428-.2147-.0763-.3933-.2382-.4984-.4517-.105-.2136-.1283-.4622-.0649-.6937l.8751-2.7964c.0731-.2346.2307-.4287.4381-.5395.2075-.1108.4477-.1294.668-.0515Zm-6.1258 2.7965c.1091.0387.21.1.2968.1803.0869.0803.158.178.2094.2876.0514.1096.0819.2289.09.3511.008.1222-.0066.2449-.0431.3611l-.8751 2.7964c-.0797.2257-.2383.4097-.4427.5134-.2043.1037-.4384.1191-.6531.0428-.2148-.0762-.39342-.2381-.49847-.4517-.10504-.2135-.12832-.4621-.06495-.6936l.87512-2.7965c.0731-.2346.2307-.4286.4382-.5394.2074-.1109.4477-.1294.6679-.0515Zm10.5014 0c.109.0387.2099.1.2968.1803.0868.0803.158.178.2093.2876.0514.1096.082.2289.09.3511.0081.1222-.0066.2449-.0431.3611l-.8751 2.7964c-.0329.1204-.0884.2325-.1629.3295-.0746.097-.1668.177-.271.2352-.1043.0582-.2185.0934-.3359.1035-.1173.0101-.2354-.0052-.347-.0448-.1117-.0397-.2147-.1029-.3029-.186-.0882-.083-.1598-.1842-.2104-.2974-.0506-.1132-.0793-.2361-.0843-.3614-.005-.1252.0138-.2503.0552-.3677l.8751-2.7965c.0731-.2346.2308-.4286.4382-.5394.2074-.1109.4477-.1294.668-.0515Zm1.3074-15.84302c-.3635-1.95164-1.3036-3.72824-2.6828-5.07005C19.3902 1.09742 17.6442.26079 15.7866.0516563 13.9291-.157478 12.0574.271858 10.4453 1.27689 8.83325 2.28192 7.56528 3.80993 6.82682 5.63751c-.82813-.10162-1.66703-.02213-2.46532.23361-.7983.25574-1.53919.68235-2.17732 1.2537-.63812.57135-1.16006 1.27542-1.533846 2.06911-.373787.79369-.5915611 1.66027-.6399883 2.54677-.0484271.8864.0735116 1.7741.3583503 2.6086.284839.8345.726584 1.5983 1.298194 2.2447.5716.6463 1.26104 1.1616 2.0261 1.5142.76505.3527 1.58963.5353 2.42325.5367H22.7433c1.3321.0016 2.615-.5362 3.5888-1.5044.9738-.9682 1.5657-2.2945 1.6559-3.7102.0901-1.4157-.3283-2.815-1.1705-3.91438-.8422-1.09939-2.0452-1.8167-3.3653-2.00664Z"/>
</svg>

<svg width="28" height="28" viewBox="0 0 28 28" fill="none" xmlns="http://www.w3.org/2000/svg">
<path d="M7.26788 20.5558C7.37698 20.5945 7.47783 20.6558 7.56469 20.7361C7.65154 20.8164 7.72268 20.9141 7.77404 21.0237C7.82541 21.1333 7.85599 21.2526 7.86404 21.3748C7.87209 21.497 7.85744 21.6197 7.82095 21.7359L6.94584 24.5324C6.86617 24.758 6.70751 24.942 6.50317 25.0458C6.29884 25.1495 6.06473 25.1648 5.85 25.0886C5.63527 25.0123 5.45663 24.8504 5.35158 24.6369C5.24653 24.4233 5.22325 24.1747 5.28663 23.9432L6.16174 21.1468C6.23487 20.9122 6.39248 20.7181 6.59992 20.6073C6.80735 20.4965 7.04762 20.4779 7.26788 20.5558ZM17.7692 20.5558C17.8783 20.5945 17.9792 20.6558 18.066 20.7361C18.1529 20.8164 18.224 20.9141 18.2754 21.0237C18.3267 21.1333 18.3573 21.2526 18.3654 21.3748C18.3734 21.497 18.3588 21.6197 18.3223 21.7359L17.4472 24.5324C17.3675 24.758 17.2088 24.942 17.0045 25.0458C16.8002 25.1495 16.5661 25.1648 16.3513 25.0886C16.1366 25.0123 15.958 24.8504 15.8529 24.6369C15.7479 24.4233 15.7246 24.1747 15.788 23.9432L16.6631 21.1468C16.7362 20.9122 16.8938 20.7181 17.1012 20.6073C17.3087 20.4965 17.5489 20.4779 17.7692 20.5558ZM11.6434 23.3523C11.7525 23.391 11.8534 23.4523 11.9402 23.5326C12.0271 23.6129 12.0982 23.7106 12.1496 23.8202C12.201 23.9298 12.2315 24.0491 12.2396 24.1713C12.2476 24.2935 12.233 24.4162 12.1965 24.5324L11.3214 27.3288C11.2417 27.5545 11.0831 27.7385 10.8787 27.8422C10.6744 27.9459 10.4403 27.9613 10.2256 27.885C10.0108 27.8088 9.83218 27.6469 9.72713 27.4333C9.62209 27.2198 9.59881 26.9712 9.66218 26.7397L10.5373 23.9432C10.6104 23.7086 10.768 23.5146 10.9755 23.4038C11.1829 23.2929 11.4232 23.2744 11.6434 23.3523ZM22.1448 23.3523C22.2538 23.391 22.3547 23.4523 22.4416 23.5326C22.5284 23.6129 22.5996 23.7106 22.6509 23.8202C22.7023 23.9298 22.7329 24.0491 22.7409 24.1713C22.749 24.2935 22.7343 24.4162 22.6978 24.5324L21.8227 27.3288C21.7898 27.4492 21.7343 27.5613 21.6598 27.6583C21.5852 27.7553 21.493 27.8353 21.3888 27.8935C21.2845 27.9517 21.1703 27.9869 21.0529 27.997C20.9356 28.0071 20.8175 27.9918 20.7059 27.9522C20.5942 27.9125 20.4912 27.8493 20.403 27.7662C20.3148 27.6832 20.2432 27.582 20.1926 27.4688C20.142 27.3556 20.1133 27.2327 20.1083 27.1074C20.1033 26.9822 20.1221 26.8571 20.1635 26.7397L21.0386 23.9432C21.1117 23.7086 21.2694 23.5146 21.4768 23.4038C21.6842 23.2929 21.9245 23.2744 22.1448 23.3523ZM23.4522 7.50928C23.0887 5.55764 22.1486 3.78104 20.7694 2.43923C19.3902 1.09742 17.6442 0.26079 15.7866 0.0516563C13.9291 -0.157478 12.0574 0.271858 10.4453 1.27689C8.83325 2.28192 7.56528 3.80993 6.82682 5.63751C5.99869 5.53589 5.15979 5.61538 4.3615 5.87112C3.5632 6.12686 2.82231 6.55347 2.18418 7.12482C1.54606 7.69617 1.02412 8.40024 0.650334 9.19393C0.276547 9.98762 0.0587729 10.8542 0.0103457 11.7407C-0.0380814 12.6271 0.0838573 13.5148 0.368696 14.3493C0.653535 15.1838 1.09528 15.9476 1.66689 16.594C2.23849 17.2403 2.92793 17.7556 3.69299 18.1082C4.45804 18.4609 5.28262 18.6435 6.11624 18.6449H22.7433C24.0754 18.6465 25.3583 18.1087 26.3321 17.1405C27.3059 16.1723 27.8978 14.846 27.988 13.4303C28.0781 12.0146 27.6597 10.6153 26.8175 9.51592C25.9753 8.41653 24.7723 7.69922 23.4522 7.50928V7.50928Z" fill="#2A2238"/>
</svg>
